X: 100
T: Flower of the Flock
O: Traditional Irish
S: Pierre Schryer - The Schryer Triplets
Z: Transcribed by J. Rooney
R: reel
M: 4/4
L: 1/8
Z: Contributed 20010613142839 by Jeff Rooney jeff.rooney@alcatel.com
K: G
(GE)|:"G"DE"G"GA BGGB|"C"cABG AGEG|"G"DG~G2 BG~G2| "D"dB"Bm"~B2 "Em"eB~B2|
"G"gedc "Bm"BdGB|"C"cABG AGEG|"G"DEGA "G"BGBd|"G"gedc BGG2:|
|"G"g2"G"ge dBGB|"Bm"(3cBA BG "Em"AGEG|"G"g2ge dBGB|"Am"Aa2g "Bm"fdef|
"Em"gfge "G"dBGB|"C"cABG "G"AGEG|"G"DEGA BGBd|"C"gedc "G"BGG2:|
